X:372
T: Cha yang ge
N: C1407
O: China, Shaanxi, Zhenba
S: I, 73]
R: Xiaodiao]
M: 2/4
L: 1/32
K: G
A2A2A2A2E4E4 | d6B2d6B2 | A4B2A2G8 |
G4B4A4B2A2 | G4A2B2G8 |
A2A2A2A2E4E4 | A2A2AAAAE2E2EEEE | A2A2AAAAG4E2G2 | A16 |
A6B2B4B2A2 | G4A2B2G8

